!!!COA:	Josquin des Prez
!!!CDT:	~1450-1521/08/27
!!!COM: Carpentras
!!!OTL@@LAT:	Bonitatem fecisti cum servo tuo
!!!OTL2@@LAT:	Manus tue domine
!!!AGN:	Motet
!!!SCT:	NJE 15.5
!!!SCA:	New Josquin Edition 15.5
!!!voices:	4
**kern	**kern	**kern	**kern
*staff4	*staff3	*staff2	*staff1
*Ivox	*Ivox	*Ivox	*Ivox
*I"Bassus	*I"Tenor	*I"Altus	*I"Superius
*I'B	*I'T	*I'A	*I'S
*clefF4	*clefGv2	*clefGv2	*clefG2
*>[A,B]	*>[A,B]	*>[A,B]	*>[A,B]
*>A	*>A	*>A	*>A
*k[]	*k[]	*k[]	*k[]
*M2/1	*M2/1	*M2/1	*M2/1
*met(C|)	*met(C|)	*met(C|)	*met(C|)
=1-	=1-	=1-	=1-
0r	1.D	0r	0r
.	2D/	.	.
=2	=2	=2	=2
1.D	1A	0r	0r
.	2A/	.	.
2D\	2B\	.	.
=3	=3	=3	=3
1A	1c	0r	0r
2A\	1F	.	.
2B\	.	.	.
=4	=4	=4	=4
1c	2r	0r	0r
.	2A/	.	.
1F	2A/	.	.
.	2A/	.	.
=5	=5	=5	=5
2r	2G/	0r	0r
2A\	2F/	.	.
2A\	1c	.	.
2A\	.	.	.
=6	=6	=6	=6
2G\	2B\	0r	0r
2F\	1A	.	.
1c	.	.	.
.	4G/	.	.
.	4F/	.	.
=7	=7	=7	=7
2B\	2G/	0r	0r
1A	2D/	.	.
.	1F	.	.
4G\	.	.	.
4F\	.	.	.
=8	=8	=8	=8
2G\	2E/	0r	0r
2D\	2F/	.	.
1F	2D/	.	.
.	2A/	.	.
=9	=9	=9	=9
2E\	1c	0r	0r
2F\	.	.	.
2D\	2B\	.	.
[2A\	2c\	.	.
=10	=10	=10	=10
2A\]	2A/	0r	0r
4G\	1d	.	.
4F\	.	.	.
1E	.	.	.
.	2c#i\	.	.
=11	=11	=11	=11
0D	0d	0r	1.a
.	.	.	2a/
=12	=12	=12	=12
0r	0r	1.d	1a
.	.	.	1a
.	.	2d\	.
=13	=13	=13	=13
0r	0r	1d	1b-i
.	.	1d	[1a
=14	=14	=14	=14
0r	0r	1f	2a/]
.	.	.	2a/
.	.	2e\	2g/
.	.	2c\	[2a/
=15	=15	=15	=15
0r	0r	1d	2a/]
.	.	.	4g/
.	.	.	4f/
.	.	1c	1e
=16	=16	=16	=16
0r	0r	1A	1f
.	.	2B\	2d/
.	.	[2c\	[2e/
=17	=17	=17	=17
0r	0r	2c\]	2e/]
.	.	2.A/	2c/
.	.	.	1f/
.	.	4G\	.
.	.	4A\	.
.	.	4B\	.
=18	=18	=18	=18
0r	0r	4c\	4e/
.	.	4d\	4f/
.	.	4e\	4g/
.	.	4f\	4a/
.	.	2e\	4g/
.	.	.	4a/
.	.	[2d\	4b\
.	.	.	4cc\
=19	=19	=19	=19
0r	0r	2d\]	4b\
.	.	.	4a\
.	.	2c\	1a
.	.	1B	.
.	.	.	2g#i/
=20	=20	=20	=20
0r	0r	2r	1a
.	.	2A/	.
.	.	2B\	2r
.	.	2c\	2e/
=21	=21	=21	=21
0r	0r	2d\	2f/
.	.	2B\	2g/
.	.	2c\	2a/
.	.	2d\	2f/
=22	=22	=22	=22
0r	0r	2e\	2g/
.	.	2c\	1a
.	.	2.f\	.
.	.	.	[2d/
.	.	4e\	.
=23	=23	=23	=23
0r	0r	4d\	4d/]
.	.	4c\	4e/
.	.	4d\	4f/
.	.	4e\	4g/
.	.	4f\	4a/
.	.	4d\	4f/
.	.	[2e\	[2g/
=24	=24	=24	=24
0r	0r	4e\]	4g/]
.	.	4A/	4f/
.	.	1d	4e/
.	.	.	4d/
.	.	.	1e
.	.	2c#i\	.
=25	=25	=25	=25
0r	0r	1d	1d
.	.	1r	1r
=26	=26	=26	=26
1.D	1.d	1.f	1.a
2D\	2d\	2f\	2a/
=27	=27	=27	=27
1D	1d	1f	1a
1D	1d	1f	1a
=28	=28	=28	=28
1A	1c	1e	1.a
1A	1f	[1a	.
.	.	.	2b\
=29	=29	=29	=29
0A	0e	0a]	2cc\
.	.	.	1dd
.	.	.	2cc#i\
=30	=30	=30	=30
0B-i	1d	1f	0dd
.	[1f	1d	.
=31	=31	=31	=31
0A	2f\]	2.c\	1r
.	4e\	.	.
.	4d\	4d\	.
.	1c	2e\	1a
.	.	2f\	.
=32	=32	=32	=32
1G	2d\	1g	1b
.	1e	.	.
1A	.	2e\	1cc
.	[2f\	[2a\	.
=33	=33	=33	=33
0B-i	4f\]	2a\]	0dd
.	4e\	.	.
.	4d\	4g\	.
.	4c\	4f\	.
.	1d	1g	.
=34	=34	=34	=34
0A	0e	0a	0cc
=35	=35	=35	=35
1D	1f	1a	1dd
2D\	2f\	2a\	2dd\
2D\	2f\	2a\	2dd\
=36	=36	=36	=36
1.F	2f\	1a	2.cc\
.	4e\	.	.
.	4d\	.	4b\
.	1c	1f	2a/
4E\	.	.	4g/
4D\	.	.	4f/
=37	=37	=37	=37
1.C	2r	2g\	2e/
.	2c\	2e\	2a/
.	2d\	2f\	2b\
2C/	2e\	2g\	2cc\
=38	=38	=38	=38
2D\	2f\	2d\	2.a/
2E\	1c	1a	.
.	.	.	4g/
2F\	.	.	2a/
2D\	[2d\	2f\	2b\
=39	=39	=39	=39
2.F\	2d\]	1f	2a/
.	2.A/	.	1cc
8E\L	.	.	.
8D\J	.	.	.
2.C/	.	2e\	.
.	4B\	.	.
.	2c\	[2e\	4b\
4D\	.	.	4a/
=40	=40	=40	=40
2E\	2B\	2e\]	2g/
2F\	2A/	2d\	1a
1E	1B	1e	.
.	.	.	2g#i/
=41	=41	=41	=41
0AA	1A	1c	1a
.	[1A	[1e	[1cc
=42	=42	=42	=42
1AA	1A]	2e\]	1cc]
.	.	2e\	.
1E	1G	[1e	1b
=43	=43	=43	=43
0F	0A	2e\]	0a
.	.	4d\	.
.	.	4c\	.
.	.	1d	.
=44	=44	=44	=44
0E;	0B;	0e;	0g;
=45	=45	=45	=45
1F	1A	1c	1a
2F\	2A/	2c\	2a/
[2D\	[2d\	[2f\	[2a/
=46	=46	=46	=46
2D\]	2d\]	2f\]	2a/]
2D\	2d\	2f\	2a/
2A\	2c\	2e\	2a/
2A\	2c\	2e\	2a/
=47	=47	=47	=47
1A	1f	1c	1a
1B	1d	2d\	1g
.	.	[2g\	.
=48	=48	=48	=48
1c	1e	2g\]	1a
.	.	4f\	.
.	.	4e\	.
1A	1c	2f\	1a
.	.	2f\	.
=49	=49	=49	=49
1G	1d	1g	1b
2r	2r	1e	2r
2C/	2c\	.	2g/
=50	=50	=50	=50
2C/	2c\	2e\	2g/
2C/	2c\	2e\	2g/
2G\	2B\	2d\	2g/
2G\	2B\	2d\	2g/
=51	=51	=51	=51
1F	2A/	2d\	1a
.	1d	2A/	.
1E	.	2B\	1g
.	2c\	2G/	.
=52	=52	=52	=52
1.D	2d\	[0A	2f/
.	1f	.	4d/
.	.	.	4e/
.	.	.	4f/
.	.	.	4g/
4C/	4e\	.	4a/
4BB/	4d\	.	4b\
=53	=53	=53	=53
0AA	0e	0A]	2cc\
.	.	.	1dd
.	.	.	2cc#i\
=54	=54	=54	=54
0D	0d	1f	0dd
.	.	2f\	.
.	.	2f\	.
=55	=55	=55	=55
1r	0A	2e\	0r
.	.	2e\	.
1F	.	2d\	.
.	.	4c\	.
.	.	4B\	.
=56	=56	=56	=56
2F\	0r	2A/	0r
2F\	.	1d	.
2E\	.	.	.
2E\	.	2c\	.
=57	=57	=57	=57
1D	0r	1.f	1r
1A	.	.	1cc
.	.	4e\	.
.	.	4d\	.
=58	=58	=58	=58
2A\	0r	4e\	2cc\
.	.	4c\	.
2A\	.	1f	2cc\
2G\	.	.	2b\
2G\	.	2e\	2b\
=59	=59	=59	=59
1F	1r	2.f\	2a/
.	.	.	4g/
.	.	4g\	4f/
1c	1A	4a\	1e
.	.	4g\	.
.	.	[2a\	.
=60	=60	=60	=60
2c\	2A/	4a\]	0r
.	.	4g\	.
2c\	2A/	2f\	.
2B\	2G/	4e\	.
.	.	4d\	.
2B\	2G/	2e\	.
=61	=61	=61	=61
1A	2.F/	2.f\	1r
.	4G/	4e\	.
1F	4A/	2d\	1a
.	4B\	.	.
.	4c\	4c\	.
.	4d\	4B\	.
=62	=62	=62	=62
2F\	2c\	1A	2a/
2F\	1d	.	2a/
2E\	.	1r	2g/
2E\	2c#i\	.	2g/
=63	=63	=63	=63
2D\	1d	1A	2f/
2F\	.	.	4e/
.	.	.	4d/
2F\	1r	2A/	1c
2F\	.	2A/	.
=64	=64	=64	=64
2E\	0r	2G/	1r
2E\	.	2G/	.
4D\	.	4F/	1f
4E\	.	4G/	.
4F\	.	4A/	.
4G\	.	4B-i\	.
=65	=65	=65	=65
2F\	0r	2A/	2f/
2D\	.	1d	2f/
1A	.	.	2e/
.	.	2c\	2e/
=66	=66	=66	=66
2.D\	1f	4d\	2d/
.	.	4e\	.
.	.	4f\	4c/
4E\	.	4g\	4B/
4F\	2f\	2a\	2A/
4G\	.	.	.
4A\	2f\	2A/	2a/
4B\	.	.	.
=67	=67	=67	=67
2c\	2e\	2r	2g/
2C/	2e\	2c\	2g/
2D\	2d\	2A/	2f/
2F\	2A/	2A/	2a/
=68	=68	=68	=68
2E\	2B\	2e\	2g/
2C/	2c\	2e\	1a
2D\	2F/	2f\	.
2F\	2A/	[2c\	4g/
.	.	.	4f/
=69	=69	=69	=69
2C/	2G/	2c\]	4e/
.	.	.	4d/
2D\	2F/	2B\	1f
1C	1G	1c	.
.	.	.	2e/
=70	=70	=70	=70
1r	1F	2r	0f
.	.	1c	.
1F	1r	.	.
.	.	[2d\	.
=71	=71	=71	=71
1G	1r	2d\]	0r
.	.	1e	.
1A	1c	.	.
.	.	[2A/	.
=72	=72	=72	=72
1D	1d	2A/]	1f
.	.	4G/	.
.	.	4F/	.
1r	1e	[1c	1g
=73	=73	=73	=73
1F	1A	2c\]	1a
.	.	2A/	.
1G	1r	2B-i\	1d
.	.	4A/	.
.	.	4G/	.
=74	=74	=74	=74
1A	1c	2.F/	1r
.	.	4G/	.
1D	1d	2A/	1f
.	.	2F/	.
=75	=75	=75	=75
1r	1e	1c	1g
1F	2A/	2c\	1a
.	2A/	[2d\	.
=76	=76	=76	=76
2G\	1B	4d\]	1d
.	.	4G/	.
2G\	.	2.d\	.
1F	2A/	.	1a
.	.	4e\	.
.	[2d\	[2f\	.
=77	=77	=77	=77
2D\	4d\]	4f\]	2a/
.	4c\	4e\	.
2A\	1f	2c\	2a/
2G\	.	2d\	1b
2G\	2e\	2B\	.
=78	=78	=78	=78
1F	1f	2c\	1.a
.	.	1d	.
2D\	2r	.	.
[2D\	2f\	4c\	2a/
.	.	4B\	.
=79	=79	=79	=79
4D\]	1f	2A/	1dd
4E\	.	.	.
4F\	.	2a\	.
4G\	.	.	.
1A	2e\	2a\	[1cc
.	[2f\	2a\	.
=80	=80	=80	=80
2F\	4f\]	2a\	2cc\]
.	4e\	.	.
2G\	2d\	4g\	2b\
.	.	4f\	.
2A\	2c\	2e\	2a/
2B-i\	[2d\	2d\	2g/
=81	=81	=81	=81
1A	2d\]	1e	1a
.	2c#i\	.	.
1r	2d\	1r	1a
.	[2D/	.	.
=82	=82	=82	=82
2.D\	4D/]	1f	1r
.	4E/	.	.
.	4F/	.	.
4E\	4G/	.	.
4F\	4A/	2f\	1cc
4G\	4B\	.	.
[2A\	[2c\	2f\	.
=83	=83	=83	=83
4A\]	4c\]	2e\	2cc\
4G\	4B\	.	.
4E\	2.G/	2e\	2cc\
4F\	.	.	.
2.G\	.	[1d	2b\
.	4A/	.	.
.	4B\	.	2b\
4F\	4c\	.	.
=84	=84	=84	=84
2.D\	2d\	2d\]	1.a
.	2.D/	4c\	.
4E\	.	4B\	.
2F\	.	2A/	.
.	4E/	.	.
2D\	2F/	[2d\	4g/
.	.	.	4f/
=85	=85	=85	=85
2E\	2G/	2d\]	2e/
2AA/	1E	2c\	1a
1BB	.	2d\	.
.	2D/	2B\	2g/
=86	=86	=86	=86
2AA/	1F	2c\	2a/
2D\	.	2d\	2f/
4C/	2E/	1e	2.g/
4D\	.	.	.
4E\	[2G/	.	.
4F\	.	.	4a/
=87	=87	=87	=87
2G\	4G/]	1d	1b-i
.	4A/	.	.
2G\	4B-i\	.	.
.	4c\	.	.
[1D	2d\	2r	1a
.	2A/	2d\	.
=88	=88	=88	=88
0D_	1B-	2d\	2r
.	.	1f	2d/
.	1A	.	2d/
.	.	2d\	[2f/
=89	=89	=89	=89
1D]	2D/	2.a\	2f/]
.	1F	.	2d/
.	.	4g\	.
1r	.	2f\	2a/
.	2C/	2e\	2g/
=90	=90	=90	=90
1r	1D	1d	1f
2r	1A	2c\	2e/
[2F\	.	2f\	2a/
=91	=91	=91	=91
2F\]	0r	2d\	2f/
2C/	.	2.e\	2.g/
1D	.	.	.
.	.	4d\	4f/
.	.	[2d\	4e/
.	.	.	4d/
=92	=92	=92	=92
1AA	1A	2d\]	1e
.	.	2c#i\	.
1D	1F	[1d	1d
=93	=93	=93	=93
1r	1G	1d]	0r
1A	4D/	1r	.
.	4E/	.	.
.	4F/	.	.
.	4G/	.	.
=94	=94	=94	=94
1F	4A/	0r	0r
.	4B\	.	.
.	4c\	.	.
.	4A/	.	.
1G	4B\	.	.
.	4c\	.	.
.	[2d\	.	.
=95	=95	=95	=95
2D\	2d\]	0r	0r
2.F\	4c\	.	.
.	4B\	.	.
.	4A/	.	.
4E\	4G/	.	.
4D\	[2c\	.	.
4C/	.	.	.
=96	=96	=96	=96
1D	2c\]	0r	0r
.	2B\	.	.
[1C	1c	.	.
=97	=97	=97	=97
1C]	1r	0r	0r
1r	1c	.	.
=98	=98	=98	=98
1F	1d	0r	0r
1G	2d\	.	.
.	[2e\	.	.
=99	=99	=99	=99
2G\	2e\]	0r	0r
1A	2e\	.	.
.	2.c\	.	.
2A\	.	.	.
.	4A/	.	.
=100	=100	=100	=100
2.F\	1A	0r	0r
4D\	.	.	.
1D	2r	.	.
.	[2A/	.	.
=101	=101	=101	=101
2r	2A/]	0r	0r
2D\	1d	.	.
1G	.	.	.
.	[2B\	.	.
=102	=102	=102	=102
1E	2B\]	0r	0r
.	1c	.	.
1F	.	.	.
.	2d\	.	.
=103	=103	=103	=103
2G\	2e\	0r	0r
2A\	2c\	.	.
2F\	2A/	.	.
2D\	2B\	.	.
=104	=104	=104	=104
2E\	2G/	0r	0r
2C/	2.A/	.	.
4D\	.	.	.
4E\	4G/	.	.
4F\	4A/	.	.
4G\	4B\	.	.
=105	=105	=105	=105
4A\	4c\	0r	0r
4F\	4d\	.	.
2.G\	4e\	.	.
.	4f\	.	.
.	4e\	.	.
4F\	4d\	.	.
4D\	[2d\	.	.
4F\	.	.	.
=106	=106	=106	=106
1E	2d\]	0r	1r
.	2c#i\	.	.
[1D	[1d	.	1a
=107	=107	=107	=107
1D]	1d]	1r	2b-i\
.	.	.	1a
1r	1r	1A	.
.	.	.	4g/
.	.	.	4f/
=108	=108	=108	=108
0r	0r	2B-i\	2g/
.	.	1A	2f/
.	.	.	1cc
.	.	4G/	.
.	.	4F/	.
=109	=109	=109	=109
0r	0r	2G/	2b-i\
.	.	2F/	1a
.	.	1c	.
.	.	.	4g/
.	.	.	4f/
=110	=110	=110	=110
0r	0r	2c\	4e/
.	.	.	4d/
.	.	2B-i\	1g
.	.	2A/	.
.	.	4G/	[2f/
.	.	4F/	.
=111	=111	=111	=111
1r	0r	1G	2f/]
.	.	.	2e/
1A	.	1F	[1f
=112	=112	=112	=112
2B-i\	1r	0r	1f]
1A	.	.	.
.	1A	.	1r
4G\	.	.	.
4F\	.	.	.
=113	=113	=113	=113
2G\	2B-i\	0r	0r
2F\	1A	.	.
1c	.	.	.
.	4G/	.	.
.	4F/	.	.
=114	=114	=114	=114
2B-i\	2G/	0r	0r
1A	2F/	.	.
.	1c	.	.
4G\	.	.	.
4F\	.	.	.
=115	=115	=115	=115
4E\	2c\	0r	1r
4D\	.	.	.
1G	2B-i\	.	.
.	2.A/	.	1cc
[2F\	.	.	.
.	8G/L	.	.
.	8F/J	.	.
=116	=116	=116	=116
2F\]	1G	0r	1b-i
2E\	.	.	.
2.F\	1F	.	2.a/
4G\	.	.	4b-i\
=117	=117	=117	=117
2A\	0r	1f	4cc\
.	.	.	4a/
2D\	.	.	1dd
1A	.	1e	.
.	.	.	2cc#i\
=118	=118	=118	=118
0r	1r	2.d\	1dd
.	.	4e\	.
.	1B-i	4f\	2r
.	.	4d\	.
.	.	[2g\	2d/
=119	=119	=119	=119
0r	1A	2g\]	2e/
.	.	2f\	4c/
.	.	.	4d/
.	2.G/	1g	4e/
.	.	.	4f/
.	.	.	[2g/
.	4A/	.	.
=120	=120	=120	=120
1E	4B-i\	2r	2g/]
.	4G/	.	.
.	1c	2G/	4f/
.	.	.	4e/
1D	.	2A/	1f
.	2Bni\	4F/	.
.	.	4G/	.
=121	=121	=121	=121
2.C/	1c	4A/	2.e/
.	.	4B\	.
.	.	1c	.
4D\	.	.	4f/
4E\	2r	.	2g/
4C/	.	.	.
[2F\	2c\	2B\	[2a/
=122	=122	=122	=122
2F\]	2d\	1B	2a/]
2E\	2e\	.	2g/
1F	2c\	1A	[1a
.	[2d\	.	.
=123	=123	=123	=123
2.D\	2d\]	1A	1a]
.	4c\	.	.
4E\	4B\	.	.
4F\	2A/	[1d	1r
4D\	.	.	.
[2G\	2G/	.	.
=124	=124	=124	=124
2G\]	1A	1d]	1a
2F\	.	.	.
1G	1G	1d	1b
=125	=125	=125	=125
2.E\	2r	2e\	1.cc
.	1e	1g	.
4F\	.	.	.
4G\	.	.	.
4E\	.	.	.
[2A\	4d\	2f\	4b\
.	4c\	.	4a/
=126	=126	=126	=126
2A\]	4B\	2.d\	1dd
.	4A/	.	.
2G\	2B\	.	.
.	.	4e\	.
2A\	2A/	4f\	2cc\
.	.	4e\	.
2D\	[2d\	[2f\	2b\
=127	=127	=127	=127
2F\	4d\]	4f\]	2a/
.	4c\	4e\	.
2G\	4B\	1d	1g
.	4A/	.	.
1E	1G	.	.
.	.	2c\	4f/
.	.	.	4e/
=128	=128	=128	=128
2.D\	2A/	2.d\	1f
.	2.B\	.	.
4C/	.	4e\	.
2D\	.	2f\	2d/
.	4A/	.	.
2AA/	[2c\	[2e\	2a/
=129	=129	=129	=129
2C/	4c\]	2e\]	2g/
.	4B\	.	.
2D\	1A	4d\	1f
.	.	4c\	.
1BB	.	2.d\	.
.	2G/	.	4e/
.	.	4e\	4d/
=130	=130	=130	=130
0AA	0A	2f\	2.c/
.	.	1e	.
.	.	.	4d/
.	.	.	4e/
.	.	.	4f/
.	.	4d\	4g/
.	.	4c\	4a/
=131	=131	=131	=131
0r	1r	4d\	4b\
.	.	4e\	4cc\
.	.	2c\	1a
.	1d	1B	.
.	.	.	2g#i/
=132	=132	=132	=132
0r	1c	1A	1a
.	1B	1r	1dd
=133	=133	=133	=133
0r	1A	1r	1cc
.	1G	1g	1b
=134	=134	=134	=134
0r	1d	1f	1a
.	1A	1e	1cc
=135	=135	=135	=135
1G	2.B\	1d	1b
.	4c\	.	.
1F	4d\	2r	1a
.	4c\	.	.
.	[2d\	2A/	.
=136	=136	=136	=136
1E	2d\]	2B\	1g
.	2G/	2c\	.
1D	1A	4d\	2f/
.	.	4e\	.
.	.	4f\	[2a/
.	.	4e\	.
=137	=137	=137	=137
1F	1A	4d\	2a/]
.	.	4c\	.
.	.	4B\	2d/
.	.	4A/	.
1E	1B	4G/	1g
.	.	4A/	.
.	.	4B\	.
.	.	4G/	.
=138	=138	=138	=138
1C	1c	4A/	2e/
.	.	4B\	.
.	.	1c	1a
1D	1F	.	.
.	.	2B\	4g/
.	.	.	4f/
=139	=139	=139	=139
0C	0G	0c	2e/
.	.	.	1f
.	.	.	2e/
=140	=140	=140	=140
1r	0F	0A	1f
[1F	.	.	1r
=141	=141	=141	=141
2F\]	1r	0r	1.f
2G\	.	.	.
2A\	[1F	.	.
2B\	.	.	2g/
=142	=142	=142	=142
1c	2F/]	1.c	2a/
.	2G/	.	2b\
[1C	2A/	.	1cc
.	2B\	2d\	.
=143	=143	=143	=143
2C/]	1c	2e\	1.g
2D\	.	2f\	.
2E\	[1G	1g	.
2F\	.	.	2a/
=144	=144	=144	=144
1G	2G/]	1.d	2b\
.	2A/	.	2cc\
[1D	2B\	.	1dd
.	2c\	2e\	.
=145	=145	=145	=145
2D\]	1d	2f\	1.d
2E\	.	2g\	.
2F\	[1D	1a	.
2G\	.	.	2e/
=146	=146	=146	=146
1A	2D/]	1.d	2f/
.	2E/	.	2g/
[1D	2F/	.	[1a
.	2G/	2e\	.
=147	=147	=147	=147
2D\]	1A	2f\	1a]
2E\	.	2g\	.
2F\	[1D	1a	[1dd
2G\	.	.	.
=148	=148	=148	=148
1A	2D/]	1f	1dd]
.	2E/	.	.
2.D\	2F/	[1a	1dd
.	2G/	.	.
4E\	.	.	.
=149	=149	=149	=149
2F\	2A/	2a\]	2.cc\
2G\	2B\	4g\	.
.	.	4f\	4b\
2A\	2c\	2e\	2a/
2B\	[2d\	2d\	2g/
=150	=150	=150	=150
1A	2d\]	2e\	0a
.	2c\	2.f\	.
1D	1f	.	.
.	.	4e\	.
.	.	[2d\	.
=151	=151	=151	=151
1G	0e	2d\]	1b-i
.	.	4c#i\	.
.	.	4B\	.
1A	.	1c#i	1a
=152	=152	=152	=152
1.B-i	1.d	[0dl	1f
.	.	.	2g/
2A\	2c\	.	2a/
=153	=153	=153	=153
2G\	2B-i\	0d_	2d/
2F\	2A/	.	2.a/
1G	1B-i	.	.
.	.	.	4g/
.	.	.	4f/
.	.	.	4e/
=154	=154	=154	=154
0Dl	0Al	0d]	0fl
!!LO:LB:g=z
=155||	=155||	=155||	=155||
*>B	*>B	*>B	*>B
*k[]	*k[]	*k[]	*k[]
*M2/1	*M2/1	*M2/1	*M2/1
*met(C|)	*met(C|)	*met(C|)	*met(C|)
!!section: Secunda pars: Manus tue domine
!!!OMD: Secunda pars: Manus tue domine
1.D	1.d	1.f	1.a
2D\	2d\	2f\	2a/
=156	=156	=156	=156
1D	1d	1f	1a
1D	1d	1f	1a
=157	=157	=157	=157
1G	1d	1g	1b
1G	1d	[1g	1b
=158	=158	=158	=158
1C	1e	1g]	1cc
1C	1e	1G	1cc
=159	=159	=159	=159
1F	1c	2A/	1a
.	.	2F/	.
1E	1c	1G	1g
=160	=160	=160	=160
1D	1d	1A	1f
1D	1d	1a	1f
=161	=161	=161	=161
1G	1d	1g	1b-i
1G	1d	1g	1b-i
=162	=162	=162	=162
0A	0c	1f	1a
.	.	2e\	[1a
.	.	[2f\	.
=163	=163	=163	=163
0B-i	0d	4f\]	2a/]
.	.	4e\	.
.	.	4d\	4g/
.	.	4c\	4f/
.	.	1d	1g
=164	=164	=164	=164
[0A	0e	0c	0a
=165	=165	=165	=165
0A_	0c	0e	0a
=166	=166	=166	=166
0A]	1c	1e	1a
.	1c	1e	1a
=167	=167	=167	=167
1D	1d	1f	1a
1D	1d	1f	1a
=168	=168	=168	=168
0G	0B	0d	0g
=169	=169	=169	=169
0C	0c	0e	0g
=170	=170	=170	=170
1C	1c	1e	1g
1C	1c	1e	1g
=171	=171	=171	=171
1D	1A	1d	1f
2D\	1A	1f	1d
2D\	.	.	.
=172	=172	=172	=172
1F	1.A	1f	1a
1C	.	1e	1a
.	2G/	.	.
=173	=173	=173	=173
0D	2F/	0d	0a
.	2E/	.	.
.	1F	.	.
=174	=174	=174	=174
0AA	0E	0c	[0a
=175	=175	=175	=175
0AA	1r	1e	0a]
.	1A	1f	.
=176	=176	=176	=176
0r	1B	1g	1r
.	1c	1a	1e
=177	=177	=177	=177
1D	1d	0r	1f
1E	1r	.	1g
=178	=178	=178	=178
1F	1A	1r	1a
2G\	2B\	1d	1r
2B\	[2d\	.	.
=179	=179	=179	=179
2A\	2d\]	1e	1r
2A\	2c\	.	.
1D	1d	1f	1a
=180	=180	=180	=180
0r	1G	1g	1b
.	1A	1r	1cc
=181	=181	=181	=181
0r	1B	1d	1dd
.	2c\	2e\	1r
.	2G/	[2g\	.
=182	=182	=182	=182
1D	1d	2g\]	1a
.	.	2f\	.
2G\	1r	2g\	2b\
2B\	.	2d\	[2dd\
=183	=183	=183	=183
1A	0r	2e\	2dd\]
.	.	2e\	2cc\
1D	.	1f	2dd\
.	.	.	2a/
=184	=184	=184	=184
1G	0r	2d\	2b\
.	.	2d\	2b\
1C	.	2e\	1cc
.	.	2e\	.
=185	=185	=185	=185
2r	1A	1f	1a
1D	.	.	.
.	2B\	2d\	1r
2E\	2B\	[2g\	.
=186	=186	=186	=186
2E\	1c	2g\]	1r
1F	.	1a	.
.	1A	.	2r
[2D\	.	[2f\	[2a/
=187	=187	=187	=187
2D\]	1d	2f\]	2a/]
1G	.	4e\	1b
.	.	4d\	.
.	2d\	1g	.
2G\	2d\	.	2b\
=188	=188	=188	=188
2G\	2e\	2g\	2b\
2A\	2e\	1e	2cc\
2A\	1c	.	2cc\
[2F\	.	[2a\	[2cc\
=189	=189	=189	=189
2F\]	1A	2a\]	2cc\]
1D	.	1f	2.dd\
.	1B	.	.
.	.	.	4cc\
[2E\	.	[2g\	4b\
.	.	.	4a/
=190	=190	=190	=190
2E\]	1c	2g\]	2g/
1F	.	2f\	1a
.	2A/	2d\	.
[2G\	[2B\	[2e\	[2g/
=191	=191	=191	=191
4G\]	4B\]	2e\]	2g/]
4F\	4A/	.	.
2D\	1A	1d	2f/
1E	.	.	2g/
.	2G/	2c\	2e/
=192	=192	=192	=192
1.D	1A	2.d\	2.f/
.	.	4e\	4g/
.	1d	2f\	1a
4C/	.	2d\	.
4BB/	.	.	.
=193	=193	=193	=193
1AA	2c\	1e	1r
.	2A/	.	.
1r	2B\	1d	1dd
.	2B\	.	.
=194	=194	=194	=194
0r	1A	1r	2cc\
.	.	.	2a/
.	1r	1g	2b\
.	.	.	2b\
=195	=195	=195	=195
0r	1d	2f\	1a
.	.	2d\	.
.	2c\	2e\	1r
.	2A/	2e\	.
=196	=196	=196	=196
1G	1B	2d\	1r
.	.	2G/	.
2F\	2A/	2A/	1a
2D\	2d\	2F/	.
=197	=197	=197	=197
2E\	2d\	2G/	1g
2E\	2c#i\	2G/	.
1D	2d\	2A/	2f/
.	2r	2d\	2f/
=198	=198	=198	=198
0r	1A	1c	1e
.	1G	2B\	1b
.	.	2B\	.
=199	=199	=199	=199
1A	2F/	2A/	2cc\
.	2F/	2.c\	2a/
1G	2E/	.	2b\
.	.	4B\	.
.	2B\	[2e\	2b\
=200	=200	=200	=200
2F\	2c\	2e\]	1a
2F\	2A/	2d\	.
1E	2B\	[1e	1r
.	2B\	.	.
=201	=201	=201	=201
1B	2E/	1e]	2g/
.	2E/	.	2g/
1c	1e	1A	1a
=202	=202	=202	=202
2B\	2d\	0r	2b\
1A	2.f\	.	1cc
.	4e\	.	.
2G\	2e\	.	2b\
=203	=203	=203	=203
1F	2e\	1A	1a
.	2d\	.	.
[1E	[1e	1B	1g
=204	=204	=204	=204
1E]	1e]	1c	2r
.	.	.	2e/
1r	1r	1d	1f
=205	=205	=205	=205
1E	0r	1B	1g
1F	.	1A	1a
=206	=206	=206	=206
1G	1B	2r	1g
.	.	2.e\	.
2A\	1c	.	1e
.	.	4d\	.
2A\	.	4c\	.
.	.	4B\	.
=207	=207	=207	=207
2F\	1d	2.A/	1a
2F\	.	.	.
.	.	4B\	.
1E	1e	2c\	2g/
.	.	2G/	[2cc\
=208	=208	=208	=208
1r	1c	1A	4cc\]
.	.	.	4b\
.	.	.	1a
1E	1B	1e	.
.	.	.	2g#i/
=209	=209	=209	=209
1F	1A	1c	1a
1G	1d	1g	1b
=210	=210	=210	=210
2A\	2c\	2e\	1a
2D\	1d	2.f\	.
1D	.	.	[1a
.	.	4e\	.
.	2f\	[2d\	.
=211	=211	=211	=211
1A	2e\	2d\]	0a_
.	2e\	2c\	.
1r	2.d\	[1f	.
.	4c\	.	.
=212	=212	=212	=212
1D	1A	2f\]	1a]
.	.	4e\	.
.	.	4d\	.
2A\	1r	1c	1r
2A\	.	.	.
=213	=213	=213	=213
2G\	0r	1r	1d
2G\	.	.	.
2F\	.	1A	2a/
2F\	.	.	2a/
=214	=214	=214	=214
1E	1r	2e\	2g/
.	.	2e\	2g/
1r	1D	2d\	2f/
.	.	2d\	2f/
=215	=215	=215	=215
1AA	2A/	2c\	1e
.	2A/	2c\	.
2E\	2G/	1B	1e
2E\	2G/	.	.
=216	=216	=216	=216
2D\	2F/	2r	0a
2D\	2F/	2A/	.
2C/	2E/	2e\	.
2AA/	[2A/	2e\	.
=217	=217	=217	=217
2BB/	2A/]	2d\	1r
2BB/	2G#i/	2d\	.
4AA/	1A	2c\	1a
4BB/	.	.	.
4C/	.	2c\	.
4D\	.	.	.
=218	=218	=218	=218
4E\	0r	2B\	2g/
4F\	.	.	.
4G\	.	1e	2g/
4E\	.	.	.
1F	.	.	2.a/
.	.	2d\	.
.	.	.	4b\
=219	=219	=219	=219
1E	1r	0e	4cc\
.	.	.	4b\
.	.	.	1cc
1AA	1A	.	.
.	.	.	4b\
.	.	.	4a/
=220	=220	=220	=220
0r	2G/	0r	1b
.	2G/	.	.
.	2.A/	.	1e
.	4B\	.	.
=221	=221	=221	=221
0r	4c\	1r	1.a
.	4B\	.	.
.	1c	.	.
.	.	1e	.
.	4B\	.	4g/
.	4A/	.	4f/
=222	=222	=222	=222
0r	1B	2d\	1g
.	.	2d\	.
.	2A/	2.e\	1a
.	[2c\	.	.
.	.	4f\	.
=223	=223	=223	=223
1r	2c\]	4g\	1e
.	.	4f\	.
.	4B\	1g	.
.	4A/	.	.
1E	2B\	.	1r
.	2c\	4f\	.
.	.	4e\	.
=224	=224	=224	=224
2D\	1d	1f	1a
2D\	.	.	.
2.E\	1G	2.e\	1cc
4F\	.	4d\	.
=225	=225	=225	=225
4G\	0r	2d\	1b
4F\	.	.	.
1G	.	2e\	.
.	.	2B\	1g
4F\	.	[2e\	.
4E\	.	.	.
=226	=226	=226	=226
1F	1A	2e\]	2a/
.	.	2d\	2a/
[1E	1c	1e	2g/
.	.	.	[2e/
=227	=227	=227	=227
1E]	1B	1r	4e/]
.	.	.	4f/
.	.	.	1g
1r	1G	1B	.
.	.	.	4f/
.	.	.	4e/
=228	=228	=228	=228
0r	2A/	1c	1f
.	2A/	.	.
.	2G/	2B\	[1e
.	[2E/	[2c\	.
=229	=229	=229	=229
0r	4E/]	4c\]	1e]
.	4F/	4A/	.
.	1G	2B\	.
.	.	2E/	1r
.	4F/	[2e\	.
.	4E/	.	.
=230	=230	=230	=230
0r	1F	2e\]	1a
.	.	2d\	.
.	1E	[1e	1g
=231	=231	=231	=231
0r	1A	1e]	1cc
.	2G/	2r	2b\
.	[2c\	[2e\	[2a/
=232	=232	=232	=232
0r	2c\]	2e\]	2a/]
.	4B\	4d\	4g/
.	4A/	4c\	4f/
.	2B\	2d\	2g/
.	2c\	2e\	2a/
=233	=233	=233	=233
0r	2A/	2c\	2f/
.	2.B\	1d	2.g/
.	4A/	.	4f/
.	[2d\	2D/	4e/
.	.	.	4d/
=234	=234	=234	=234
1r	2d\]	1A	1e
.	2c#i\	.	.
1D	[1d	2r	[1d
.	.	2A/	.
=235	=235	=235	=235
2D\	1d]	2A/	1d]
2D\	.	2A/	.
1G	1r	1B	1r
=236	=236	=236	=236
1F	1A	2c\	0r
.	.	1d	.
1D	2A/	.	.
.	2A/	4c\	.
.	.	4B\	.
=237	=237	=237	=237
2D\	1d	1A	0r
2D\	.	.	.
2E\	1c	1r	.
[2F\	.	.	.
=238	=238	=238	=238
2F\]	1A	0r	0r
4E\	.	.	.
4D\	.	.	.
2C/	2A/	.	.
2F\	2A/	.	.
=239	=239	=239	=239
2G\	2B\	0r	0r
1A	1c	.	.
4G\	4B\	.	.
4F\	4A/	.	.
=240	=240	=240	=240
1B-i	1G	0r	0r
2.A\	2.F/	.	.
4G\	4G/	.	.
=241	=241	=241	=241
4F\	2A/	0r	0r
4E\	.	.	.
2.D\	2.B-i\	.	.
4C/	4A/	.	.
[2F\	4G/	.	.
.	4F/	.	.
=242	=242	=242	=242
2F\]	1G	0r	0r
2E\	.	.	.
2F\	1F	.	.
2D\	.	.	.
=243	=243	=243	=243
2F\	2r	0r	0r
2F\	2A/	.	.
1F	2c\	.	.
.	2c\	.	.
=244	=244	=244	=244
1E	1c	0r	0r
2r	1B	.	.
2D\	.	.	.
=245	=245	=245	=245
2D\	1A	0r	0r
1F	.	.	.
.	1d	.	.
2D\	.	.	.
=246	=246	=246	=246
1A	1c	0r	0r
2G\	2B\	.	.
[2F\	[2A/	.	.
=247	=247	=247	=247
2F\]	2A/]	0r	0r
4E\	4G/	.	.
4D\	4F/	.	.
2E\	2G/	.	.
2C/	2A/	.	.
=248	=248	=248	=248
2D\	2F/	0r	0r
2E\	2G/	.	.
2F\	4D/	.	.
.	4E/	.	.
4D\	4F/	.	.
4E\	4G/	.	.
=249	=249	=249	=249
4F\	4A/	0r	0r
4G\	4B\	.	.
4A\	4c\	.	.
4F\	4d\	.	.
4G\	4e\	.	.
4D\	4f\	.	.
2F\	[2d\	.	.
=250	=250	=250	=250
1E	2d\]	1r	0r
.	2c#i\	.	.
[1D	2d\	[1d	.
.	2B\	.	.
=251	=251	=251	=251
1D]	1A	2d\]	1r
.	.	2d\	.
1r	1D	1d	[1a
=252	=252	=252	=252
0r	0r	1c	2a/]
.	.	.	2a/
.	.	1d	1a
=253	=253	=253	=253
1r	0r	1e	1g
[1D	.	[1d	1a
=254	=254	=254	=254
2D\]	1r	1d]	1b-
2D\	.	.	.
1D	[1A	1r	[1a
=255	=255	=255	=255
1C	2A/]	0r	1a]
.	2A/	.	.
1D	1A	.	1r
=256	=256	=256	=256
1E	1G	0r	0r
[1D	1A	.	.
=257	=257	=257	=257
1D]	1B-i	1d	0r
1r	1A	1c	.
=258	=258	=258	=258
1D	0r	1d	1a
2E\	.	1B	1g
2E\	.	.	.
=259	=259	=259	=259
1F	0r	1A	1a
1D	.	1d	1f
=260	=260	=260	=260
1A	0r	2c\	1e
.	.	2c\	.
2F\	.	1f	1a
2F\	.	.	.
=261	=261	=261	=261
1.c	0r	1e	2g/
.	.	.	2g/
.	.	2r	1cc
4B\	.	2c\	.
4A\	.	.	.
=262	=262	=262	=262
1G	0r	2d\	1b
.	.	2e\	.
2F\	.	2f\	2r
2A\	.	2c\	2a/
=263	=263	=263	=263
1G	0r	2d\	1b
.	.	4c\	.
.	.	4B\	.
2F\	.	2A/	1cc
2E\	.	2c\	.
=264	=264	=264	=264
1D	0r	1d	1f
1r	.	2e\	2g/
.	.	[2f\	[2a/
=265	=265	=265	=265
0r	0r	2f\]	2a/]
.	.	4e\	4g/
.	.	4d\	4f/
.	.	2c\	4e/
.	.	.	4d/
.	.	2d\	2f/
=266	=266	=266	=266
0r	0r	1A	1e
.	.	1r	[1d
=267	=267	=267	=267
0r	0r	1.B-	1d]
.	.	.	[1f
.	.	4A/	.
.	.	4G/	.
=268	=268	=268	=268
0r	0r	2A/	2f/]
.	.	2F/	4e/
.	.	.	4d/
.	.	[1c	2e/
.	.	.	2c/
=269	=269	=269	=269
0r	0r	2c\]	1.g
.	.	4B\	.
.	.	4A/	.
.	.	2B\	.
.	.	2G/	4f/
.	.	.	4e/
=270	=270	=270	=270
0r	0r	1.d	2f/
.	.	.	2d/
.	.	.	1a
.	.	4c\	.
.	.	4B\	.
=271	=271	=271	=271
0r	0r	2c\	1a
.	.	2A/	.
.	.	[1e	2r
.	.	.	[2cc\
=272	=272	=272	=272
0r	0r	1e]	2cc\]
.	.	.	2b\
.	.	2r	1a
.	.	[2c\	.
=273	=273	=273	=273
0r	0r	2c\]	1g
.	.	2B\	.
.	.	1A	1f
=274	=274	=274	=274
0r	0r	2G/	2g/
.	.	2F/	1a
.	.	2A/	.
.	.	2B\	4g/
.	.	.	4f/
=275	=275	=275	=275
0r	0r	1c	4e/
.	.	.	4d/
.	.	.	1g
.	.	2A/	.
.	.	2B-i\	[2f/
=276	=276	=276	=276
0r	1r	1G	2f/]
.	.	.	2e/
.	[1c	[1F	[1f
=277	=277	=277	=277
1r	2c\]	1F]	0f_
.	2c\	.	.
[1F	1c	1r	.
=278	=278	=278	=278
2F\]	1d	0r	1f]
2F\	.	.	.
1F	1A	.	1r
=279	=279	=279	=279
1G	1B	0r	0r
1D	2A/	.	.
.	[2d\	.	.
=280	=280	=280	=280
1E	2d\]	0r	0r
.	2c\	.	.
2D\	2.d\	.	.
[2G\	.	.	.
.	8c\L	.	.
.	8B\J	.	.
=281	=281	=281	=281
2G\]	1A	0r	0r
2F\	.	.	.
2G\	2r	.	.
4F\	2d\	.	.
4E\	.	.	.
=282	=282	=282	=282
1D	2f\	0r	0r
.	2f\	.	.
2r	1e	.	.
2G\	.	.	.
=283	=283	=283	=283
2B-i\	1d	0r	0r
2B-i\	.	.	.
1A	2r	.	.
.	[2e\	.	.
=284	=284	=284	=284
1G	2e\]	0r	0r
.	2e\	.	.
2r	2.c\	.	.
[2A\	.	.	.
.	4d\	.	.
=285	=285	=285	=285
2A\]	2e\	0r	0r
2A\	2.A/	.	.
2.F\	.	.	.
.	4B\	.	.
.	2c\	.	.
4G\	.	.	.
=286	=286	=286	=286
2A\	2.F/	0r	0r
2.D\	.	.	.
.	4G/	.	.
.	2A/	.	.
4E\	.	.	.
4F\	[2D/	.	.
4G\	.	.	.
=287	=287	=287	=287
2A\	2D/]	0r	0r
2D\	1d	.	.
2F\	.	.	.
2G\	4c\	.	.
.	4B\	.	.
=288	=288	=288	=288
1A	1c	1e	0r
[1AA	1r	1f	.
=289	=289	=289	=289
1AA]	1A	1e	0r
1r	1B-	1d	.
=290	=290	=290	=290
0r	1A	2c\	1a
.	.	2c\	.
.	1G	2d\	1b-i
.	.	2e\	.
=291	=291	=291	=291
0r	2F/	1f	1a
.	2F/	.	.
.	2G/	1d	1g
.	4G/	.	.
.	4A/	.	.
=292	=292	=292	=292
2r	1B-i	1r	2f/
2D\	.	.	2f/
2E\	1G	2r	2g/
2F\	.	2d\	2a/
=293	=293	=293	=293
1G	0r	2d\	1b-i
.	.	2d\	.
1C	.	1e	1g
=294	=294	=294	=294
0F	1c	2c\	1a
.	.	1f	.
.	2c\	.	1a
.	[2c\	2f\	.
=295	=295	=295	=295
2F\	2c\]	2f\	2a/
2F\	2c\	2f\	2a/
2F\	2A/	2c\	2a/
2F\	2A/	2c\	2a/
=296	=296	=296	=296
2D\	2.F/	2d\	2a/
2D\	.	2d\	2a/
.	4G/	.	.
1F	2A/	2c\	1a
.	[2A/	[2d\	.
=297	=297	=297	=297
1E	2A/]	2d\]	1g
.	2G/	2c\	.
1F	1A	2d\	1f
.	.	[2A/	.
=298	=298	=298	=298
1C	1e	4A/]	1cc
.	.	4B\	.
.	.	2c\	.
2.D\	1f	2.F/	2b\
.	.	.	[2a/
4E\	.	4G/	.
=299	=299	=299	=299
2F\	2d\	2A/	2a/]
1G	1e	1B-i	1g
2D\	[2d\	[2A/	2f/
=300	=300	=300	=300
1E	2d\]	2A/]	1g
.	2c#i\	2G/	.
[1D	1d	[1A	1f
=301	=301	=301	=301
1D]	2r	1A]	1r
.	2A/	.	.
1r	2B-\	1r	1d
.	2G/	.	.
=302	=302	=302	=302
1r	1B-i	0r	2d/
.	.	.	2.f/
1D	1A	.	.
.	.	.	4e/
.	.	.	4d/
.	.	.	4c/
=303	=303	=303	=303
2D\	0r	1r	2d/
2.F\	.	.	2c/
.	.	1A	[1f
4E\	.	.	.
4D\	.	.	.
4C/	.	.	.
=304	=304	=304	=304
2D\	0r	2A/	2f/]
2C/	.	2.c\	2g/
[1F	.	.	2.a/
.	.	4B\	.
.	.	4A/	.
.	.	4G/	4b\
=305	=305	=305	=305
2F\]	0r	2A/	4cc\
.	.	.	4a/
2G\	.	2G/	2dd\
2.A\	.	2.c\	2cc\
.	.	.	[2a/
4B\	.	4d\	.
=306	=306	=306	=306
2c\	0r	2e\	2a/]
2.d\	.	1f	1b
4c\	.	.	.
2A\	.	[2e\	[2a/
=307	=307	=307	=307
1B	0r	2e\]	2a/]
.	.	2d\	2g#i/
1A	.	1e	1a
=308	=308	=308	=308
2r	0r	2r	1r
1d	.	1f	.
.	.	.	1a
2d\	.	2f\	.
=309	=309	=309	=309
1c	0r	1e	2a/
.	.	.	2a/
2B\	.	2d\	2g/
[2A\	.	[2c\	[2f/
=310	=310	=310	=310
2A\]	0r	2c\]	2f/]
4G\	.	4B\	4e/
4F\	.	4A/	4d/
4E\	.	2G/	2c/
4D\	.	.	.
2F\	.	[2A/	[2d/
=311	=311	=311	=311
1E	0r	2A/]	2d/]
.	.	2G/	2c#i/
[1D	.	1A	2d/
.	.	.	[2a/
=312	=312	=312	=312
1D]	1d	1F	2a/]
.	.	.	2a/
1r	1B	1G	2g/
.	.	.	2g/
=313	=313	=313	=313
1A	1c	1A	1e
1F	1d	2D/	1a
.	.	2A/	.
=314	=314	=314	=314
1G	0r	2B\	1d
.	.	1d	.
1A	.	.	1a
.	.	2c#i\	.
=315	=315	=315	=315
1D	1d	1d	1f
1G	1B	1e	1g
=316	=316	=316	=316
1F	1c	0f	0a
1D	1d	.	.
=317	=317	=317	=317
1G	1d	1g	1b
2G\	2d\	2g\	2b\
[2G\	[2d\	[2g\	[2b\
=318	=318	=318	=318
2G\]	2d\]	2g\]	2b\]
2G\	2d\	2g\	2b\
[1G	[1d	[1g	[1b
=319	=319	=319	=319
1G]	1d]	1g]	1b]
[1D	1d	2.f\	1a
.	.	4e\	.
=320	=320	=320	=320
1D]	1.f	2d\	1dd
.	.	4c\	.
.	.	4B\	.
1A	.	1A	1cc
.	2e\	.	.
=321	=321	=321	=321
1A	1.e	0r	2b\
.	.	.	1a
[1B-i	.	.	.
.	4d\	.	4g/
.	4c\	.	4f/
=322	=322	=322	=322
1B-]	1d	2r	1g
.	.	1d	.
[1A	1e	.	[1a
.	.	4c\	.
.	.	4B\	.
=323	=323	=323	=323
1A]	2r	1c	1a]
.	1A	.	.
1D	.	1f	1r
.	[2B\	.	.
=324	=324	=324	=324
1E	2B\]	2.e\	1g
.	1c	.	.
.	.	4d\	.
1F	.	4c\	1a
.	.	4B\	.
.	[2d\	2A/	.
=325	=325	=325	=325
1G	2d\]	2G/	1b
.	1G	2.g\	.
1C	.	.	1cc
.	.	4f\	.
.	[2c\	4e\	.
.	.	4d\	.
=326	=326	=326	=326
2.F\	4c\]	1c	1a
.	4B\	.	.
.	4A/	.	.
4E\	4G/	.	.
2D\	4F/	[1f	[1dd
.	4E/	.	.
2C/	[2A/	.	.
=327	=327	=327	=327
1BB	2A/]	2f\]	1dd]
.	2G#i/	4e\	.
.	.	4d\	.
[1AA	[1A	2f\	1cc
.	.	[2e\	.
=328	=328	=328	=328
0AA_	0A_	2e\]	2.a/
.	.	1a	.
.	.	.	4b\
.	.	.	2cc\
.	.	4g\	[2dd\
.	.	4f\	.
=329	=329	=329	=329
1AA]	1A]	1e	2dd\]
.	.	.	2cc#i\
[1D	1r	1d	[1dd
=330	=330	=330	=330
2D\]	0A	1.f	1dd]
2E\	.	.	.
1F	.	.	1cc
.	.	2e\	.
=331	=331	=331	=331
1G	1B	2.d\	1b
.	.	4e\	.
1A	1c	4f\	1a
.	.	4e\	.
.	.	[2f\	.
=332	=332	=332	=332
1B-i	1d	2f\]	1g
.	.	4e\	.
.	.	4d\	.
1A	1e	1c	[1al
=333	=333	=333	=333
0D	1.f	1d	0a_
.	.	1A	.
.	2e\	.	.
=334	=334	=334	=334
0Al	2.d\	1f	0a]
.	8c#i\L	.	.
.	8B\J	.	.
.	1c#il	1el	.
==	==	==	==
*-	*-	*-	*-
!!!RDF**kern: i=editorial accidental
!!!RDF**kern: l=long note in original notation
!!!RDF**kern: V=start of tuplet marker
!!!RDF**kern: Z=end of tuplet marker
!!!ENC:	Joel Chapman 2011/12/27
!!!END:	2012/12/27/
!!!EED:	Jesse Rodin
!!!EEV:	2012/02/02/
!!attribution-level@Jos: 5 (doubtful)
!!!ONB:	Translated from MusicXML and edited on 2012/02/02/ by Craig Sapp
!!muse2ps: u^(2) @{OTL2}^C^@{COA}?\n@{SCT}^i2I150v95,95,95,150c120Q16
